;FLAVOR:Marlin
;TIME:15655
;Filament used: 11.8071m
;Layer height: 0.2
;MINX:5.387
;MINY:26.975
;MINZ:0.3
;MAXX:197.446
;MAXY:207.278
;MAXZ:2.9
;TARGET_MACHINE.NAME:Anycubic 4Max
;Generated with Cura_SteamEngine 5.10.2
M140 S60
M105
M190 S60
M104 S200
M105
M109 S200
G21 ;metric values
G90 ;absolute positioning
M82 ;set extruder to absolute mode
M107 ;start with the fan off
G28 X0 Y0 ;move X/Y to min endstops
G28 Z0 ;move Z to min endstops
G1 Z15.0 F60 ;move the platform down 15mm
G92 E0 ;zero the extruded length
G1 F200 E3 ;extrude 3mm of feed stock
G92 E0 ;zero the extruded length again
G1 F60
M117 Printing...
G5
M82 ;absolute extrusion mode
G92 E0
G92 E0
G1 F1500 E-6.5
;LAYER_COUNT:14
;LAYER:0
M107
M204 S300
M205 X8.18 Y8.18
G0 F1800 X42.709 Y28.253 Z0.3
M205 X3 Y3
;TYPE:SKIRT
G1 F1500 E0
G1 F1200 X43.045 Y27.876 E0.02519
G1 X43.436 Y27.555 E0.05043
G1 X43.873 Y27.301 E0.07565
G1 X44.344 Y27.118 E0.10086
G1 X44.839 Y27.012 E0.12612
G1 X45.491 Y26.976 E0.15869
G1 X174.59 Y26.975 E6.59947
G1 X175.288 Y26.985 E6.6343
G1 X175.791 Y27.032 E6.6595
G1 X176.281 Y27.158 E6.68474
G1 X176.745 Y27.36 E6.70999
G1 X177.171 Y27.632 E6.73521
G1 X177.549 Y27.967 E6.7604
G1 X177.869 Y28.358 E6.78561
G1 X178.124 Y28.795 E6.81085
G1 X178.307 Y29.266 E6.83606
G1 X178.414 Y29.76 E6.86128
G1 X178.45 Y30.415 E6.89401
G1 X178.451 Y65.413 E8.64006
G1 X178.491 Y68.21 E8.77962
G1 X178.606 Y70.927 E8.9153
G1 X178.801 Y73.674 E9.05269
G1 X179.069 Y76.379 E9.1883
G1 X179.417 Y79.102 E9.32526
G1 X179.842 Y81.803 E9.46167
G1 X180.345 Y84.511 E9.59908
G1 X180.913 Y87.151 E9.73381
G1 X181.577 Y89.855 E9.87272
G1 X182.292 Y92.456 E10.0073
G1 X183.102 Y95.102 E10.14535
G1 X183.977 Y97.697 E10.28198
G1 X184.913 Y100.233 E10.41684
G1 X185.947 Y102.809 E10.55533
G1 X187.032 Y105.303 E10.69102
G1 X188.198 Y107.788 E10.82796
G1 X189.424 Y110.223 E10.96398
G1 X190.727 Y112.637 E11.10084
G1 X192.089 Y114.998 E11.23682
G1 X193.533 Y117.345 E11.3743
G1 X195.036 Y119.64 E11.51117
G1 X196.827 Y122.202 E11.66712
G1 X197.09 Y122.633 E11.69231
G1 X197.283 Y123.101 E11.71757
G1 X197.399 Y123.593 E11.74279
G1 X197.446 Y124.119 E11.76913
G1 X197.446 Y203.386 E15.72378
G1 X197.436 Y204.113 E15.76005
G1 X197.389 Y204.616 E15.78526
G1 X197.263 Y205.106 E15.8105
G1 X197.062 Y205.57 E15.83573
G1 X196.79 Y205.996 E15.86094
G1 X196.455 Y206.375 E15.88618
G1 X196.064 Y206.695 E15.91139
G1 X195.628 Y206.95 E15.93659
G1 X195.157 Y207.134 E15.96181
G1 X194.662 Y207.24 E15.98707
G1 X194.22 Y207.277 E16.0092
G1 X192.907 Y207.278 E16.0747
G1 X192.206 Y207.268 E16.10968
G1 X191.703 Y207.221 E16.13488
G1 X191.238 Y207.101 E16.15884
G1 X190.602 Y206.811 E16.19372
G1 X189.426 Y206.089 E16.26256
G1 X187.066 Y204.682 E16.39964
G1 X184.66 Y203.34 E16.53708
G1 X182.214 Y202.063 E16.67475
G1 X179.776 Y200.878 E16.80999
G1 X177.288 Y199.755 E16.94617
G1 X174.748 Y198.693 E17.08352
G1 X172.217 Y197.718 E17.21884
G1 X169.594 Y196.792 E17.35762
G1 X167.03 Y195.968 E17.49198
G1 X164.372 Y195.194 E17.63009
G1 X161.738 Y194.509 E17.76588
G1 X159.065 Y193.895 E17.90271
G1 X156.365 Y193.353 E18.0401
G1 X153.675 Y192.892 E18.17626
G1 X150.986 Y192.509 E18.31177
G1 X148.249 Y192.198 E18.44919
G1 X145.511 Y191.966 E18.58628
G1 X142.793 Y191.812 E18.7221
G1 X140.04 Y191.734 E18.85951
G1 X137.323 Y191.734 E18.99506
G1 X134.57 Y191.812 E19.13246
G1 X131.823 Y191.968 E19.26973
G1 X129.144 Y192.196 E19.40387
G1 X126.377 Y192.51 E19.5428
G1 X123.688 Y192.893 E19.67831
G1 X120.998 Y193.354 E19.81447
G1 X118.273 Y193.901 E19.95313
G1 X115.653 Y194.504 E20.08726
G1 X112.992 Y195.196 E20.22444
G1 X110.333 Y195.97 E20.3626
G1 X107.769 Y196.795 E20.49698
G1 X105.158 Y197.716 E20.63511
G1 X102.591 Y198.705 E20.77235
G1 X100.101 Y199.746 E20.907
G1 X97.576 Y200.887 E21.04524
G1 X95.15 Y202.066 E21.1798
G1 X92.662 Y203.365 E21.31983
G1 X91.984 Y203.728 E21.3582
G1 X91.222 Y204.009 E21.39872
G1 X90.542 Y204.076 E21.43281
G1 X9.213 Y204.077 E25.49033
G1 X8.539 Y204.067 E25.52396
G1 X8.035 Y204.019 E25.54922
G1 X7.546 Y203.893 E25.57441
G1 X7.082 Y203.692 E25.59964
G1 X6.656 Y203.419 E25.62488
G1 X6.278 Y203.084 E25.65008
G1 X5.958 Y202.692 E25.67533
G1 X5.703 Y202.256 E25.70052
G1 X5.52 Y201.784 E25.72578
G1 X5.414 Y201.29 E25.75099
G1 X5.387 Y200.785 E25.77622
G1 X5.44 Y200.282 E25.80145
G1 X5.571 Y199.794 E25.82666
G1 X5.778 Y199.333 E25.85187
G1 X6.114 Y198.82 E25.88247
G1 X6.944 Y197.96 E25.9421
G1 X14.415 Y190.489 E26.46921
G1 X16.315 Y188.534 E26.60522
G1 X18.187 Y186.496 E26.74328
G1 X19.958 Y184.454 E26.87814
G1 X21.71 Y182.317 E27.016
G1 X23.375 Y180.163 E27.15183
G1 X25.002 Y177.93 E27.28967
G1 X26.541 Y175.689 E27.4253
G1 X28.029 Y173.382 E27.56226
G1 X29.442 Y171.052 E27.69821
G1 X30.79 Y168.681 E27.83428
G1 X32.091 Y166.232 E27.97263
G1 X33.294 Y163.806 E28.10773
G1 X34.443 Y161.311 E28.24477
G1 X35.525 Y158.776 E28.38228
G1 X36.525 Y156.24 E28.51828
G1 X37.451 Y153.677 E28.65424
G1 X38.309 Y151.077 E28.79084
G1 X39.095 Y148.447 E28.92778
G1 X39.808 Y145.793 E29.06488
G1 X40.437 Y143.15 E29.20043
G1 X40.998 Y140.456 E29.33771
G1 X41.48 Y137.769 E29.47391
G1 X41.888 Y135.052 E29.61098
G1 X42.221 Y132.312 E29.74869
G1 X42.471 Y129.61 E29.88406
G1 X42.645 Y126.896 E30.01974
G1 X42.743 Y124.145 E30.15708
G1 X42.765 Y121.384 E30.29483
G1 X42.708 Y118.671 E30.43021
G1 X42.574 Y115.927 E30.56727
G1 X42.363 Y113.209 E30.70328
G1 X42.081 Y110.53 E30.83768
G1 X42.052 Y109.936 E30.86735
G1 X42.051 Y30.801 E34.81541
G1 X42.061 Y30.136 E34.84859
G1 X42.109 Y29.633 E34.8738
G1 X42.235 Y29.143 E34.89904
G1 X42.437 Y28.679 E34.92429
G1 X42.709 Y28.253 E34.9495
M205 X8.18 Y8.18
G1 F1500 E28.4495
;MESH:Lock_IOT_face.stl
G0 F1800 X44.586 Y30.599
G0 X45.675 Y30.599
G0 X55.668 Y53.785
G0 X56.319 Y54.849
G0 X57.129 Y55.798
G0 X58.078 Y56.608
G0 X59.142 Y57.259
G0 X60.295 Y57.737
G0 X64.041 Y58.487
G0 X64.019 Y58.177
M205 X3 Y3
;TYPE:WALL-INNER
G1 F1500 E34.9495
G1 F1200 X62.767 Y58.272 E35.01215
G1 X61.48 Y58.177 E35.07653
G1 X60.256 Y57.88 E35.13937
G1 X59.09 Y57.399 E35.2023
G1 X57.985 Y56.727 E35.26682
G1 X57.018 Y55.907 E35.33007
G1 X56.195 Y54.94 E35.39342
G1 X55.53 Y53.847 E35.45725
G1 X55.048 Y52.686 E35.51997
G1 X54.748 Y51.452 E35.58333
G1 X54.65 Y50.173 E35.64732
G1 X54.745 Y48.904 E35.71081
G1 X55.046 Y47.665 E35.77442
G1 X55.532 Y46.498 E35.83749
G1 X56.195 Y45.408 E35.90114
G1 X57.018 Y44.442 E35.96445
G1 X57.983 Y43.622 E36.02763
G1 X59.075 Y42.955 E36.09147
G1 X60.242 Y42.467 E36.15458
G1 X61.472 Y42.172 E36.21768
G1 X62.747 Y42.074 E36.28148
G1 X64.018 Y42.169 E36.34507
G1 X65.258 Y42.467 E36.40869
G1 X66.425 Y42.955 E36.4718
G1 X67.517 Y43.622 E36.53564
G1 X68.482 Y44.441 E36.59879
G1 X69.303 Y45.405 E36.66196
G1 X69.964 Y46.493 E36.72547
G1 X70.438 Y47.626 E36.78674
G1 X70.755 Y48.903 E36.85239
G1 X70.848 Y50.173 E36.91592
G1 X70.758 Y51.406 E36.9776
G1 X70.461 Y52.649 E37.04136
G1 X69.957 Y53.868 E37.10717
G1 X69.302 Y54.942 E37.16993
G1 X68.482 Y55.906 E37.23307
G1 X67.537 Y56.711 E37.295
G1 X66.412 Y57.398 E37.36076
G1 X65.262 Y57.876 E37.4229
G1 X64.019 Y58.177 E37.4867
M205 X8.18 Y8.18
G0 F1800 X64.042 Y58.487
G0 X71.919 Y77.936
G0 X71.279 Y78.44
G0 X70.732 Y79.037
G0 X70.286 Y79.712
G0 X69.955 Y80.454
G0 X69.747 Y81.25
G0 X69.675 Y82.076
G0 X69.873 Y83.461
G0 X70.429 Y84.713
G0 X71.301 Y85.77
G0 X72.435 Y86.55
G0 X73.526 Y86.95
G0 X74.469 Y87.047
G0 X75.716 Y87.028
G0 X75.629 Y86.729
M205 X3 Y3
G1 F1200 X74.689 Y86.816 E37.5338
G1 X74.107 Y86.793 E37.56286
G1 X73.614 Y86.713 E37.58778
G1 X73.074 Y86.552 E37.61589
G1 X72.58 Y86.339 E37.64273
G1 X71.943 Y85.963 E37.67963
G1 X71.501 Y85.614 E37.70773
G1 X71.045 Y85.142 E37.74047
G1 X70.642 Y84.579 E37.77501
G1 X70.32 Y83.959 E37.80987
G1 X70.105 Y83.356 E37.84181
G1 X69.979 Y82.775 E37.87147
G1 X69.928 Y82.113 E37.90459
G1 X69.989 Y81.289 E37.94581
G1 X70.187 Y80.537 E37.98461
G1 X70.504 Y79.829 E38.02331
G1 X70.952 Y79.16 E38.06348
G1 X71.447 Y78.625 E38.09984
G1 X72.06 Y78.143 E38.13875
G1 X72.744 Y77.765 E38.17774
G1 X73.49 Y77.506 E38.21713
G1 X74.069 Y77.405 E38.24646
G1 X74.605 Y77.372 E38.27325
G1 X75.215 Y77.394 E38.3037
G1 X75.782 Y77.489 E38.33238
G1 X76.467 Y77.713 E38.36834
G1 X77.183 Y78.091 E38.40873
G1 X77.837 Y78.577 E38.44938
G1 X78.379 Y79.147 E38.48863
G1 X78.812 Y79.794 E38.52747
G1 X79.144 Y80.527 E38.56761
G1 X79.326 Y81.301 E38.60728
G1 X79.384 Y82.128 E38.64864
G1 X79.3 Y83.065 E38.69557
G1 X79.04 Y83.922 E38.74026
G1 X78.577 Y84.746 E38.78741
G1 X77.953 Y85.469 E38.83506
G1 X77.239 Y86.059 E38.88127
G1 X76.451 Y86.486 E38.92598
G1 X75.629 Y86.729 E38.96875
M205 X8.18 Y8.18
G0 F1800 X75.716 Y87.028
G0 X82.76 Y91.023
G0 X83.345 Y90.534
G0 X83.124 Y90.315
M205 X3 Y3
G1 F1200 X82.894 Y90.433 E38.98164
G1 X82.592 Y90.434 E38.99671
G1 X82.403 Y90.36 E39.00684
G1 X81.616 Y89.617 E39.06083
G1 X80.094 Y88.096 E39.16818
G1 X79.985 Y87.888 E39.1799
G1 X79.97 Y87.604 E39.19409
G1 X80.056 Y87.389 E39.20564
G1 X80.427 Y86.955 E39.23412
G1 X81.046 Y86.147 E39.28491
G1 X81.542 Y85.273 E39.33504
G1 X81.942 Y84.287 E39.38813
G1 X82.226 Y83.25 E39.44177
G1 X82.309 Y82.604 E39.47426
G1 X82.335 Y81.786 E39.51509
G1 X82.305 Y80.965 E39.55608
G1 X82.222 Y80.306 E39.58922
G1 X81.943 Y79.283 E39.64212
G1 X81.536 Y78.297 E39.69534
G1 X81.032 Y77.42 E39.7458
G1 X80.432 Y76.646 E39.79466
G1 X80.101 Y76.264 E39.81988
G1 X80.017 Y76.1 E39.82907
G1 X80.008 Y75.755 E39.84629
G1 X80.126 Y75.528 E39.85905
G1 X82.358 Y73.297 E40.0165
G1 X82.639 Y73.152 E40.03227
G1 X82.894 Y73.154 E40.04499
G1 X83.213 Y73.341 E40.06344
G1 X83.934 Y74.153 E40.11762
G1 X84.415 Y74.791 E40.15748
G1 X84.823 Y75.415 E40.19468
G1 X85.212 Y76.116 E40.23467
G1 X85.861 Y77.58 E40.31457
G1 X86.101 Y78.292 E40.35205
G1 X86.321 Y79.12 E40.3948
G1 X86.544 Y80.53 E40.46602
G1 X86.603 Y81.996 E40.53921
G1 X86.507 Y83.437 E40.61126
G1 X86.25 Y84.797 E40.68032
G1 X85.82 Y86.133 E40.75034
G1 X85.248 Y87.411 E40.82019
G1 X84.533 Y88.624 E40.89044
G1 X83.687 Y89.746 E40.96054
G1 X83.124 Y90.315 E41.00048
M205 X8.18 Y8.18
G0 F1800 X83.345 Y90.534
G0 X83.166 Y91.649
G0 X84.138 Y93.376
G0 X86.18 Y95.399
G0 X86.788 Y94.822
G0 X86.553 Y94.613
M205 X3 Y3
G1 F1200 X86.31 Y94.752 E41.01445
G1 X86.068 Y94.772 E41.02656
G1 X85.767 Y94.652 E41.04273
G1 X84.314 Y93.195 E41.14539
G1 X83.837 Y92.701 E41.17965
G1 X83.537 Y92.316 E41.204
G1 X83.471 Y92.166 E41.21217
G1 X83.455 Y91.805 E41.2302
G1 X83.587 Y91.534 E41.24524
G1 X84.166 Y90.855 E41.28976
G1 X84.652 Y90.255 E41.32828
G1 X85.173 Y89.506 E41.3738
G1 X85.657 Y88.737 E41.41913
G1 X86.055 Y88 E41.46092
G1 X86.574 Y86.805 E41.52592
G1 X86.985 Y85.569 E41.5909
G1 X87.277 Y84.315 E41.65514
G1 X87.449 Y83.046 E41.71903
G1 X87.506 Y81.741 E41.7842
G1 X87.446 Y80.488 E41.84678
G1 X87.265 Y79.199 E41.91172
G1 X86.96 Y77.917 E41.97746
G1 X86.718 Y77.168 E42.01673
G1 X86.444 Y76.447 E42.05521
G1 X85.716 Y74.956 E42.13799
G1 X85.327 Y74.295 E42.17626
G1 X84.898 Y73.648 E42.21499
G1 X84.443 Y73.048 E42.25256
G1 X83.553 Y72.037 E42.31976
G1 X83.429 Y71.815 E42.33244
G1 X83.427 Y71.473 E42.3495
G1 X83.552 Y71.244 E42.36252
G1 X84.662 Y70.109 E42.44172
G1 X85.758 Y69.027 E42.51856
G1 X85.96 Y68.916 E42.53006
G1 X86.18 Y68.888 E42.54112
G1 X86.483 Y68.97 E42.55678
G1 X86.627 Y69.077 E42.56573
G1 X87.118 Y69.62 E42.60226
G1 X87.988 Y70.665 E42.6701
G1 X88.769 Y71.763 E42.73732
G1 X89.454 Y72.888 E42.80303
G1 X90.03 Y74.004 E42.86569
G1 X90.553 Y75.229 E42.93214
G1 X90.976 Y76.463 E42.99722
G1 X91.314 Y77.719 E43.06211
G1 X91.552 Y78.975 E43.12589
G1 X91.706 Y80.232 E43.18907
G1 X91.768 Y81.548 E43.2548
G1 X91.744 Y82.826 E43.31857
G1 X91.624 Y84.121 E43.38345
G1 X91.404 Y85.435 E43.44992
G1 X91.104 Y86.698 E43.51469
G1 X90.695 Y87.984 E43.58201
G1 X90.21 Y89.218 E43.64816
G1 X89.615 Y90.432 E43.71561
G1 X88.872 Y91.677 E43.78795
G1 X88.076 Y92.813 E43.85715
G1 X87.141 Y93.955 E43.93078
G1 X86.553 Y94.613 E43.97481
M205 X8.18 Y8.18
G0 F1800 X86.788 Y94.822
G0 X86.18 Y95.399
G0 X67.851 Y90.433
G0 X67.562 Y90.143
M205 X3 Y3
G1 F1200 X67.32 Y90.145 E43.98688
G1 X67.045 Y90.025 E44.00185
G1 X66.347 Y89.199 E44.0558
G1 X65.902 Y88.628 E44.09192
G1 X65.489 Y88.016 E44.12876
G1 X64.754 Y86.65 E44.20615
G1 X64.182 Y85.197 E44.28405
G1 X63.822 Y83.793 E44.35636
G1 X63.644 Y82.456 E44.42365
G1 X63.613 Y81.178 E44.48743
G1 X63.706 Y79.956 E44.54857
G1 X63.933 Y78.707 E44.61191
G1 X64.279 Y77.497 E44.6747
G1 X64.751 Y76.316 E44.73815
G1 X65.373 Y75.148 E44.80417
G1 X66.052 Y74.156 E44.86414
G1 X66.685 Y73.385 E44.91391
G1 X67.096 Y72.976 E44.94284
G1 X67.354 Y72.855 E44.95705
G1 X67.592 Y72.855 E44.96893
G1 X67.848 Y72.975 E44.98303
G1 X70.075 Y75.199 E45.14005
G1 X70.172 Y75.354 E45.14918
G1 X70.216 Y75.518 E45.15765
G1 X70.195 Y75.765 E45.17002
G1 X70.116 Y75.931 E45.17919
G1 X69.504 Y76.689 E45.22779
G1 X69.17 Y77.169 E45.25697
G1 X68.862 Y77.671 E45.28635
G1 X68.628 Y78.114 E45.31134
G1 X68.22 Y79.165 E45.36759
G1 X67.967 Y80.265 E45.4239
G1 X67.874 Y81.37 E45.47923
G1 X67.933 Y82.466 E45.53399
G1 X68.142 Y83.541 E45.58862
G1 X68.502 Y84.596 E45.64424
G1 X69.003 Y85.572 E45.69897
G1 X69.682 Y86.529 E45.75751
G1 X70.153 Y87.142 E45.79608
G1 X70.184 Y87.463 E45.81217
G1 X70.057 Y87.768 E45.82865
G1 X69.352 Y88.498 E45.87928
G1 X67.86 Y89.982 E45.98427
G1 X67.562 Y90.143 E46.00117
M205 X8.18 Y8.18
G0 F1800 X67.851 Y90.433
G0 X67.355 Y91.716
G0 X64.649 Y94.522
G0 X64.429 Y94.302
M205 X3 Y3
G1 F1200 X64.149 Y94.421 E46.01635
G1 X63.977 Y94.424 E46.02493
G1 X63.651 Y94.281 E46.04269
G1 X63.202 Y93.785 E46.07607
G1 X62.385 Y92.822 E46.13907
G1 X61.677 Y91.866 E46.19842
G1 X61.017 Y90.83 E46.25971
G1 X60.393 Y89.685 E46.32476
G1 X59.963 Y88.773 E46.37507
G1 X59.599 Y87.873 E46.4235
G1 X59.27 Y86.9 E46.47474
G1 X59.006 Y85.968 E46.52307
G1 X58.784 Y84.964 E46.57437
G1 X58.627 Y84.024 E46.62192
G1 X58.512 Y83.001 E46.67328
G1 X58.46 Y82.041 E46.72124
G1 X58.46 Y81.022 E46.77208
G1 X58.508 Y80.054 E46.82043
G1 X58.619 Y79.034 E46.87162
G1 X58.781 Y78.051 E46.92132
G1 X58.989 Y77.103 E46.96975
G1 X59.257 Y76.128 E47.02019
G1 X59.59 Y75.138 E47.0723
G1 X59.93 Y74.282 E47.11825
G1 X60.476 Y73.122 E47.18222
G1 X61.024 Y72.146 E47.23806
G1 X61.655 Y71.163 E47.29634
G1 X62.359 Y70.195 E47.35605
G1 X63.198 Y69.22 E47.42023
G1 X63.739 Y68.665 E47.45889
G1 X64.063 Y68.549 E47.47606
G1 X64.343 Y68.595 E47.49022
G1 X64.517 Y68.708 E47.50057
G1 X65.634 Y69.804 E47.57864
G1 X66.75 Y70.925 E47.65756
G1 X66.856 Y71.157 E47.67028
G1 X66.836 Y71.503 E47.68758
G1 X66.712 Y71.705 E47.6994
G1 X66.289 Y72.161 E47.73043
G1 X65.413 Y73.231 E47.79942
G1 X64.632 Y74.431 E47.87085
G1 X63.972 Y75.709 E47.94261
G1 X63.447 Y77.047 E48.01432
G1 X63.058 Y78.44 E48.08648
G1 X62.814 Y79.859 E48.15831
G1 X62.718 Y81.309 E48.23081
G1 X62.771 Y82.749 E48.3027
G1 X62.908 Y83.78 E48.35459
G1 X63.112 Y84.783 E48.40565
G1 X63.39 Y85.768 E48.45671
G1 X63.737 Y86.733 E48.50788
G1 X64.152 Y87.664 E48.55873
G1 X64.628 Y88.553 E48.60904
G1 X65.164 Y89.4 E48.65905
G1 X65.756 Y90.19 E48.7083
G1 X66.248 Y90.791 E48.74705
G1 X66.666 Y91.275 E48.77895
G1 X66.784 Y91.485 E48.79097
G1 X66.792 Y91.824 E48.80789
G1 X66.678 Y92.048 E48.82043
G1 X64.429 Y94.302 E48.97928
M205 X8.18 Y8.18
G0 F1800 X64.649 Y94.522
G0 X77.387 Y86.269
G0 X78.138 Y85.643
G0 X78.798 Y84.871
G0 X79.273 Y84.028
G0 X81.304 Y78.393
G0 X79.433 Y75.883
G0 X82.867 Y71.611
G0 X85.896 Y68.545
G0 X100.264 Y60.03
G0 X100.254 Y59.72
M205 X3 Y3
G1 F1200 X98.903 Y59.768 E49.04673
G1 X97.487 Y59.61 E49.11781
G1 X96.15 Y59.261 E49.18675
G1 X94.847 Y58.703 E49.25747
G1 X93.662 Y57.98 E49.32672
G1 X92.604 Y57.1 E49.39538
G1 X91.651 Y56.042 E49.46642
G1 X90.865 Y54.846 E49.53782
G1 X90.293 Y53.632 E49.60477
G1 X89.886 Y52.295 E49.6745
G1 X89.674 Y50.892 E49.74529
G1 X89.676 Y49.44 E49.81773
G1 X89.871 Y48.119 E49.88435
G1 X90.272 Y46.773 E49.95442
G1 X90.876 Y45.482 E50.02553
G1 X91.652 Y44.306 E50.09582
G1 X92.619 Y43.235 E50.16781
G1 X93.698 Y42.344 E50.23762
G1 X94.901 Y41.615 E50.3078
G1 X96.109 Y41.103 E50.37326
G1 X97.516 Y40.732 E50.44585
G1 X98.849 Y40.583 E50.51277
G1 X100.349 Y40.637 E50.58765
G1 X101.633 Y40.873 E50.65278
G1 X103.006 Y41.335 E50.72506
